X: 16281
T: Grey Old Woman Of Raasey
R: reel
M: 4/4
K: Amixolydian
|:e|~A2 fg aeef|~g2 ag fddf|~A2 fg aeeg|fdec AAA:|
B|cA ~A2 ecce|fA ~A2 ecce|cA ~A2 ecce|fAec BBBd|
cA ~A2 ecce|fA ~A2 ecce|cA ~A2 ecce|fAec BBB||

